X:1
T:Title
%%score { 1 | ( 2 3 ) }
L:1/8
M:6/8
K:D
V:1 treble nm="Grand Piano"
V:2 bass 
V:3 bass 
V:1
 z3 z2[Q:1/4=84] D | DGB d=cB | [GB]3 [FA]2 [DF] | [DF][FA][F=c] ed^c |[M:5/8] d-d- d3 |[M:1/8] D | %6
[M:3/4] DG Bd =cB | [=CEA]3 [CE=c]2 [CEA] | GB d[DGB] [B,G][=CFA] |[M:5/8] [B,G]-[B,G]- [B,G]3 | %10
[M:1/8] [A,FA] |[M:3/4] [A,FA][=F^G] [^FA][=GB] [FA][=F^G] | [FA]3 [DF]2 [FA] | %13
 [Fd][Ac] .[B,GB][DFA] [A,EG][A,DF] |[M:5/8] [CE]-[CE]- [CE]3 |[M:1/8] [=CE] |[M:3/4] FF FA AA | %17
 B3 d2 [DB] | [DA][DB] [DA][CE] [CF][CE] |[M:5/8] D-D- D3 |[M:1/8] D |[M:3/4] DG Bd =cB | %22
 [GB]3 [FA]2 [DF] | [DF][FA] [F=c]e d^c |[M:5/8] d-d- d3 |[M:1/8] D |[M:3/4] DG Bd =cB | %27
 [=CEA]3 [CE=c]2 [CEA] | GB d[DGB] [B,G][=CFA] |[M:13/8] [B,G]-[B,G]- [B,G]3 z z z z z z z2 |] %30
V:2
 z3 z2 [G,B,] | [G,B,][G,B,D][G,B,D] [G,B,D][F,A,D][G,B,D] | [D,D]3 [D,D]2 [D,A,] | %3
 [D,A,][D,A,][D,A,][K:treble] [G,=CG][G,B,G][G,^A,G] |[M:5/8] [G,B,G]-[G,B,G]- [G,B,G]3 | %5
[M:1/8][K:bass] [G,B,] |[M:3/4] [G,B,][G,B,D] [G,B,D][G,B,D] [F,A,D][G,B,D=F] | =C,3 A,,2 C, | %8
 [D,B,D][D,G,D] [D,B,D]D, D,D, |[M:5/8] G,,-G,,- G,,3 |[M:1/8] D, | %11
[M:3/4] D,[D,D] [D,D][D,D] [D,D][D,D] | [D,D]3 [D,A,]2 [D,A,] | [D,A,][D,A,] z/ C/D, C,D, | %14
[M:5/8] [A,,A,]-[A,,A,]- [A,,A,]3 |[M:1/8] [A,,A,] | %16
[M:3/4] [D,A,D][D,A,D] [D,A,D][E,A,C] [E,A,C][F,D] | [G,D]3 [G,B,D]2 [A,,G,] | %18
 [A,,F,][A,,G,] [A,,F,][A,,A,] [A,,A,][A,,G,] |[M:5/8] [D,F,]-[D,F,]- [D,F,]3 |[M:1/8] [G,B,] | %21
[M:3/4] [G,B,][G,B,D] [G,B,D][G,B,D] [F,A,D][G,B,D] | [D,D]3 [D,D]2 [D,A,] | %23
 [D,A,][D,A,] [D,A,][K:treble][G,=CG] [G,B,G][G,^A,G] |[M:5/8] [G,B,G]-[G,B,G]- [G,B,G]3 | %25
[M:1/8][K:bass] [G,B,] |[M:3/4] [G,B,][G,B,D] [G,B,D][G,B,D] [F,A,D][G,B,D=F] | =C,3 A,,2 C, | %28
 [D,B,D][D,G,D] [D,B,D]D, D,D, |[M:13/8] G,,-G,,- G,,3 z z z z z z z2 |] %30
V:3
 x6 | x6 | x6 | x3[K:treble] x3 |[M:5/8] x5 |[M:1/8][K:bass] x |[M:3/4] x6 | x6 | x6 |[M:5/8] x5 | %10
[M:1/8] x |[M:3/4] x6 | x6 | z2 .D,2 z2 |[M:5/8] x5 |[M:1/8] x |[M:3/4] x6 | x6 | x6 |[M:5/8] x5 | %20
[M:1/8] x |[M:3/4] x6 | x6 | x3[K:treble] x3 |[M:5/8] x5 |[M:1/8][K:bass] x |[M:3/4] x6 | x6 | x6 | %29
[M:13/8] x13 |] %30

